X: 107
T: Boże, którego chwała w mych uściech wieczna,
C: Mikołaj Gomółka
%%abc-version 2.0
%%abcx-abcm2ps-target-version 5.9.1 (29 Sep 2008)
%%abc-creator hum2abc beta
%%abcx-conversion-date 2021/10/04 07:59:09
%%abc-edited-by Marta Lawrence
%%abcx-initial-encoding-date 2020-02-18
%%humdrum-veritas 2917210767
%%humdrum-veritas-data 1877756279
%%linebreak <none>
%%barnumbers 0
L: 1/4
M: C|
N: Derived from pl-wn--sd-xvi-qu-273--109_gomolka-mikolaj--boze-ktorego-chwala-w-mych-usciech-wieczna.krn
%%staves [1 2 3 4]
V: 1
V: 2 clef=alto
V: 3 clef=alto
V: 4 clef=bass
K: F
[V:1] G4G2G2 [|] 
[V:2] D4_E2E2 [|] 
[V:3] G,4B,2C2 [|] 
[V:4] G,4_E,2E,2 [|] 
[V:1] F2ABc4 [|] 
[V:2] B,2F2G4 [|] 
[V:3] D2D2_E4 [|] 
[V:4] D,2D,2C,4 [|] 
[V:1] B2d2c3B [|] 
[V:2] G2F2G2G2 [|] 
[V:3] D2F2=E3D [|] 
[V:4] G,2D,2_E,2E,2 [|] 
[V:1] AB2AB4 :|]  
[V:2] F2>E2D4 :|]  
[V:3] CB,C2B,4 :|]  
[V:4] F,4B,,4 :|]  
[V:1] A4A2G2 [|] 
[V:2] D4F2E2 [|] 
[V:3] F,2>G,2A,B,C2 [|] 
[V:4] D,4D,2E,2 [|] 
[V:1] B2A2G4 [|] 
[V:2] DEF2D4 [|] 
[V:3] D2D2>C2B,B, [|] 
[V:4] B,,2F,,2G,,A,,B,,C, [|] 
[V:1] ^F2G2G2c4 [|] 
[V:2] D2_E2E3F [|] 
[V:3] A,2C2B,2C2 [|] 
[V:4] D,2C,2_E,2C,2 [|] 
[V:1] =B2c2A2 [|] 
[V:2] G4G2F2 [|] 
[V:3] D4E2C2 [|] 
[V:4] G,2G,,2C,2F,,2 [|] 
[V:1] A2B2B2AG [|] 
[V:2] F2F4=E2 [|] 
[V:3] C2D2D2CB, [|] 
[V:4] F,,2B,,4C,2 [|] 
[V:1] =F4G3G [|] 
[V:2] D2D2E3E [|] 
[V:3] A,4C3B, [|] 
[V:4] D,2D,2C,3C, [|] 
[V:1] ^F2G4F2 [|] 
[V:2] D2C2D3C [|] 
[V:3] A,2G,2A,4 [|] 
[V:4] D,2=E,2D,4 [|] 
[V:1] G32 |]  
[V:2] G,32 |]  
[V:3] G,32 |]  
[V:4] G,,32 |]  


